icons/svg/filter-cancel.svg

<svg width="24" height="24" viewBox="0 0 24 24" fill="none" xmlns="http://www.w3.org/2000/svg">
<path d="M4.5 7.25H10.25M7.38464 12H12M10.2692 16.75H13.7308" stroke="currentColor" stroke-width="1.5" stroke-linecap="round" stroke-linejoin="round"/>
<path fill-rule="evenodd" clip-rule="evenodd" d="M17.5 12C20.5376 12 23 9.53757 23 6.5C23 3.46243 20.5376 1 17.5 1C14.4624 1 12 3.46243 12 6.5C12 9.53757 14.4624 12 17.5 12ZM15.1478 4.14779C15.3431 3.95253 15.6597 3.95253 15.8549 4.14779L17.5 5.79291L19.1451 4.14787C19.3403 3.95261 19.6569 3.95261 19.8522 4.14787C20.0474 4.34313 20.0474 4.65972 19.8522 4.85498L18.2071 6.50002L19.8522 8.14505C20.0474 8.34032 20.0474 8.6569 19.8522 8.85216C19.6569 9.04742 19.3403 9.04742 19.1451 8.85216L17.5 7.20712L15.8549 8.85224C15.6597 9.0475 15.3431 9.0475 15.1478 8.85224C14.9526 8.65698 14.9526 8.3404 15.1478 8.14514L16.7929 6.50002L15.1478 4.8549C14.9526 4.65963 14.9526 4.34305 15.1478 4.14779Z" fill="currentColor"/>
</svg>

<svg xmlns="http://www.w3.org/2000/svg" width="24" height="24" fill="none" viewBox="0 0 24 24"><path stroke="currentColor" stroke-linecap="round" stroke-linejoin="round" stroke-width="1.5" d="M4.5 7.25h5.75M7.385 12H12m-1.73 4.75h3.46"/><path fill="currentColor" fill-rule="evenodd" d="M17.5 12a5.5 5.5 0 1 0 0-11 5.5 5.5 0 0 0 0 11m-2.352-7.852a.5.5 0 0 1 .707 0L17.5 5.793l1.645-1.645a.5.5 0 1 1 .707.707L18.207 6.5l1.645 1.645a.5.5 0 0 1-.707.707L17.5 7.207l-1.645 1.645a.5.5 0 0 1-.707-.707L16.793 6.5l-1.645-1.645a.5.5 0 0 1 0-.707" clip-rule="evenodd"/></svg>
